packages/appstore/src/assets/svgs/trading-platform/ic-appstore-binarybot-blue.svg

<svg  viewBox="0 0 32 32"  viewBox="0 0 27 26" fill="none" xmlns="http://www.w3.org/2000/svg"><g clip-path="url(#clip0_27439_122686)"><path d="M0.679993 4.90001C0.679993 2.25201 2.83199 0.100006 5.47999 0.100006H21.48C24.128 0.100006 26.28 2.25201 26.28 4.90001V20.9C26.28 23.548 24.128 25.7 21.48 25.7H5.47999C2.83199 25.7 0.679993 23.548 0.679993 20.9V4.90001Z" fill="url(#paint0_linear_27439_122686)"/><path fill-rule="evenodd" clip-rule="evenodd" d="M14.6335 12.9797C14.6335 12.8917 14.5855 12.8037 14.5215 12.7477C14.4975 12.7237 14.4735 12.6997 14.4575 12.6757C14.4255 12.6437 14.3935 12.6037 14.3535 12.5637C14.3455 12.5477 14.3295 12.5397 14.3215 12.5317C13.5615 11.7237 13.6575 11.2037 13.6655 11.1477C13.6655 10.8037 13.5135 10.4837 13.2495 10.2677L13.2095 10.2197C13.2095 10.2197 13.1855 10.2037 13.1775 10.1957C13.5855 10.3077 13.9935 10.3957 14.4095 10.4597C14.5935 10.4917 14.7855 10.5077 14.9695 10.4917C15.3855 10.4917 15.7135 10.4437 15.7375 10.3477C15.3615 10.2757 14.9935 10.1717 14.6335 10.0277H14.6175C14.2255 9.86773 14.1615 9.84373 13.9055 9.76373C13.5695 9.65173 13.2095 9.49973 13.2095 9.49973L13.6015 9.60373C14.7295 9.90773 15.1775 10.0197 15.7695 10.0357C15.9375 10.0357 16.0975 10.0277 16.2575 9.98773C16.3535 9.98773 16.6415 9.90773 16.6735 9.80373C16.4015 9.80373 16.1215 9.76373 15.8655 9.67573C14.8335 9.33173 14.3855 9.09973 13.9775 8.88373C13.7055 8.73173 13.4175 8.60373 13.1295 8.48373C12.6735 8.29173 12.2015 8.14773 11.7215 8.03573C11.3215 7.93973 10.9055 7.93973 10.5055 8.03573C9.23349 7.73973 8.94549 7.77173 8.57749 7.85173C9.80949 7.05973 11.2735 6.71573 12.7295 6.87573V4.01973H8.88149C6.52149 4.01973 4.61749 5.93173 4.61749 8.28373V17.5317C4.61749 19.8917 6.52949 21.7957 8.88149 21.7957H12.7375V18.7157C12.5935 18.6917 12.4495 18.6677 12.3055 18.6437C11.8815 18.5797 11.6175 18.5317 11.4495 18.4197C11.3775 18.3797 11.1695 18.2677 11.1215 18.2917C10.8975 18.4437 10.6015 18.4197 10.3935 18.2437C10.3695 18.2277 10.3455 18.2037 10.3215 18.1797C10.0975 18.0117 10.0575 17.6917 10.2255 17.4677C10.2975 17.3957 10.1695 17.2037 10.1695 17.2037C10.1695 17.2037 9.81749 16.6757 9.56949 16.3557C9.39349 16.0357 9.28149 15.6757 9.26549 15.3077C9.11349 15.1317 8.98549 14.9317 8.88149 14.7237C8.81749 14.6357 8.75349 14.5477 8.67349 14.4677C8.62549 14.4277 8.58549 14.3797 8.54549 14.3317C8.54549 14.3157 8.54549 14.2997 8.54549 14.2837C8.64149 14.0837 8.78549 13.8997 8.96149 13.7637C9.04949 13.7077 9.40949 13.4837 9.40949 13.4837C9.52949 13.2997 9.72149 13.1797 9.94549 13.1637C10.3055 13.1397 10.6735 13.1957 11.0095 13.3237L11.2335 13.3957C11.5695 13.5077 11.8975 13.6357 12.2175 13.7797C12.3935 13.8597 12.5775 13.9317 12.7615 13.9877C13.2335 14.1157 14.0655 13.7317 14.2335 13.5717C14.5215 13.3077 14.6415 13.1397 14.6415 12.9877L14.6335 12.9797ZM12.4495 10.7637L12.2175 10.4597C12.6735 10.6517 13.0335 11.0357 13.1855 11.5077C12.2495 11.7317 12.4495 10.7637 12.4495 10.7637V10.7637ZM16.3215 18.0357C16.4015 17.9637 16.4895 17.8837 16.5695 17.8037C17.6735 16.6997 18.3375 15.2277 18.4335 13.6677H22.3695V17.5237C22.3695 19.8837 20.4575 21.7877 18.1055 21.7877H14.2495V18.9397C15.0175 18.8597 15.7455 18.5397 16.3215 18.0357ZM9.99349 15.9717C9.87349 15.7957 9.80149 15.5957 9.76149 15.3877C10.5855 15.3317 10.2735 16.0997 10.2735 16.0997L10.4335 16.4037C10.2575 16.2917 10.0975 16.1477 9.98549 15.9717H9.99349ZM14.2495 4.01173H18.1055C20.4655 4.01173 22.3695 5.92373 22.3695 8.27573V12.1237H18.3615C18.2095 11.2597 17.8815 10.4277 17.3935 9.69973L17.3535 9.66773C17.1215 9.33173 16.8575 9.01173 16.5695 8.72373C15.9135 8.06773 15.1215 7.55573 14.2495 7.23573V4.01173V4.01173Z" fill="white"/></g><defs><linearGradient id="paint0_linear_27439_122686" x1="13.48" y1="25.7" x2="13.48" y2="0.100006" gradientUnits="userSpaceOnUse"><stop stop-color="#2A3052"/><stop offset="1" stop-color="#4B62AA"/></linearGradient><clipPath id="clip0_27439_122686"><rect width="25.6" height="25.6" fill="white" transform="translate(0.679993 0.100006)"/></clipPath></defs></svg>

<svg viewBox="0 0 27 26" fill="none" xmlns="http://www.w3.org/2000/svg"><g clip-path="url(#a)"><path d="M.68 4.9C.68 2.252 2.832.1 5.48.1h16c2.648 0 4.8 2.152 4.8 4.8v16c0 2.648-2.152 4.8-4.8 4.8h-16a4.804 4.804 0 0 1-4.8-4.8v-16Z" fill="url(#b)"/><path fill-rule="evenodd" clip-rule="evenodd" d="M14.633 12.98a.323.323 0 0 0-.111-.232c-.024-.024-.049-.048-.065-.072-.032-.032-.064-.072-.104-.112-.008-.016-.024-.024-.031-.032-.76-.808-.664-1.328-.656-1.384 0-.344-.152-.664-.417-.88l-.04-.048s-.024-.016-.031-.024c.407.112.815.2 1.231.264.184.032.377.048.56.032.417 0 .745-.048.769-.144a5.997 5.997 0 0 1-1.104-.32h-.017a6.78 6.78 0 0 0-.712-.264 11.165 11.165 0 0 1-.695-.264l.391.104c1.128.304 1.576.416 2.168.432.168 0 .329-.008.489-.048.096 0 .384-.08.416-.184-.273 0-.552-.04-.808-.128-1.032-.344-1.48-.576-1.889-.792a8.2 8.2 0 0 0-.848-.4 8.73 8.73 0 0 0-1.407-.448 2.603 2.603 0 0 0-1.216 0c-1.273-.296-1.56-.264-1.929-.184a6.384 6.384 0 0 1 4.152-.976V4.02H8.881a4.263 4.263 0 0 0-4.264 4.264v9.248a4.263 4.263 0 0 0 4.264 4.264h3.857v-3.08l-.432-.072c-.424-.064-.688-.112-.856-.224-.072-.04-.28-.152-.329-.128a.602.602 0 0 1-.728-.048.518.518 0 0 1-.072-.064.509.509 0 0 1-.095-.712c.071-.072-.057-.264-.057-.264s-.352-.528-.6-.848a2.407 2.407 0 0 1-.304-1.048 2.834 2.834 0 0 1-.384-.584c-.064-.088-.128-.176-.208-.256-.048-.04-.088-.088-.128-.136v-.048c.096-.2.24-.384.416-.52l.448-.28a.695.695 0 0 1 .536-.32c.36-.024.729.032 1.064.16l.224.072c.336.112.665.24.984.384.176.08.36.152.544.208.473.128 1.305-.256 1.473-.416.287-.264.408-.432.408-.584l-.008-.008Zm-2.183-2.216-.232-.304c.456.192.816.576.967 1.048-.936.224-.736-.744-.736-.744Zm3.872 7.272a6.408 6.408 0 0 0 2.112-4.368h3.935v3.856a4.263 4.263 0 0 1-4.264 4.264H14.25V18.94c.768-.08 1.496-.4 2.072-.904Zm-6.329-2.064a1.544 1.544 0 0 1-.232-.584c.825-.056.513.712.513.712l.16.304a1.444 1.444 0 0 1-.449-.432h.008Zm4.256-11.96h3.856a4.263 4.263 0 0 1 4.264 4.264v3.848h-4.008a6.333 6.333 0 0 0-.968-2.424l-.04-.032a6.82 6.82 0 0 0-.784-.944 6.414 6.414 0 0 0-2.32-1.488V4.012Z" fill="#fff"/></g><defs><linearGradient id="b" x1="13.48" y1="25.7" x2="13.48" y2=".1" gradientUnits="userSpaceOnUse"><stop stop-color="#2A3052"/><stop offset="1" stop-color="#4B62AA"/></linearGradient><clipPath id="a"><path fill="#fff" transform="translate(.68 .1)" d="M0 0h25.6v25.6H0z"/></clipPath></defs></svg>
